!!!SOCIAL_FUNCTION:	songs connected with war and hunting
!!!PDT:	1932
!!!OTL: No_32_My_Tapping_Stick.krn
!!!REG: Wisconsin
!!!LANG: Non-Tone
!!!LING_GROUP: Algonquin
**kern
*staff1
=1-
*clefF4
*k[b-e-a-]
*M2/4
4r
8E-\L
8E-\J
=2!|:
4F\
8F\
8r
=3||
*M3/4
8B-\L
8A-\J
8G\L
8F\J
8E-\L
8F\J
=4
4E-\
8C/L
8C/J
8E-\
8r
=5||
*M2/4
4F\
8E-/L
8C/J
=6
8BB-/
8r
4C/
=7
4E-\
8F\L
8E-\J
=8
4C/
8BB-/L
8BB-/J
=9
2BB-/
=10
8BB-/
8r
8E-\L
8E-\J
=11:|!
4BB-/
4r
==
*-
